X: 2
T: Saint Anne's
R: reel
M: 4/4
L: 1/8
K: Dmaj
f3g fedB|A2FA DAFA|BG~G2 G3B|AGFG ~F2F2|
f3g fedB|A2FB AFA=c|BGBd cAce|d2e/d/c defg|
fdfa fdfg|aggf g2gf|eceg eceg|baa^g a2a=g|
fdfa fdfg|aggf g2gf|eceg eceg|fdec d2 A2|


Tune 103	Setting 12664

